X:185 
T:Shean Duinne
T:correctly "Seanduine"  
B:MFC.079A % as "Shean Duinne"
F:file ID mfc/185seand
Z:bill@capeirish.com
Q:160
L:1/8
M:6/8
R:jig
K:D
E|D2B AFD|FGF F2E|DFB AFD|EFE E2F|
D2B AFD|DFA d2e|fed Bcd|AFD E2:|
D|d3 def|ABA AFA|e3 ede|fed B2A|
d3 def|ABA d2e|fed Bcd|AFD E2:|

